svgs/themed_icon_calendar_29.svg

<svg height="192" width="192" xmlns="http://www.w3.org/2000/svg"><path d="M146 30H46c-8.837 0-16 7.163-16 16v100c0 8.837 7.163 16 16 16h75.373a16 16 0 0 0 11.313-4.686l24.628-24.628A16 16 0 0 0 162 121.373V46c0-8.837-7.163-16-16-16Z" stroke="#000" stroke-width="12" fill="none"/><path d="M63.484 120c-1.824 0-3.144-.408-3.96-1.224-.816-.864-1.224-2.112-1.224-3.744 0-1.056.264-2.04.792-2.952.528-.912 1.248-1.848 2.16-2.808l13.536-14.256c2.016-2.16 3.456-4.08 4.32-5.76.912-1.68 1.368-3.36 1.368-5.04 0-4.32-2.664-6.48-7.992-6.48-1.392 0-2.832.192-4.32.576-1.44.384-2.952 1.056-4.536 2.016-1.296.768-2.496.936-3.6.504-1.056-.432-1.848-1.176-2.376-2.232a5.23 5.23 0 0 1-.36-3.312c.288-1.2 1.08-2.184 2.376-2.952a24.478 24.478 0 0 1 6.912-2.88c2.496-.672 4.968-1.008 7.416-1.008 5.664 0 9.984 1.272 12.96 3.816 3.024 2.496 4.536 6.072 4.536 10.728 0 3.072-.72 6.024-2.16 8.856-1.392 2.784-3.696 5.808-6.912 9.072l-9.792 9.936h16.704c3.12 0 4.68 1.512 4.68 4.536 0 3.072-1.56 4.608-4.68 4.608H63.484Zm49.22.792c-2.064 0-4.152-.288-6.264-.864a21.667 21.667 0 0 1-5.904-2.592c-1.2-.672-1.944-1.584-2.232-2.736-.24-1.152-.144-2.256.288-3.312.48-1.056 1.224-1.824 2.232-2.304 1.056-.48 2.304-.384 3.744.288 1.488.816 2.904 1.392 4.248 1.728 1.392.336 2.736.504 4.032.504 7.872 0 11.808-5.16 11.808-15.48v-1.368c-1.008 2.4-2.568 4.272-4.68 5.616-2.112 1.296-4.536 1.944-7.272 1.944-2.88 0-5.448-.696-7.704-2.088-2.208-1.44-3.96-3.384-5.256-5.832C98.448 91.8 97.8 88.968 97.8 85.8c0-3.36.72-6.336 2.16-8.928 1.488-2.64 3.504-4.704 6.048-6.192 2.592-1.488 5.568-2.232 8.928-2.232 6.48 0 11.472 2.232 14.976 6.696 3.552 4.416 5.328 10.68 5.328 18.792 0 8.496-1.992 15.096-5.976 19.8-3.984 4.704-9.504 7.056-16.56 7.056Zm2.88-27.288c2.208 0 4.008-.744 5.4-2.232 1.392-1.536 2.088-3.528 2.088-5.976s-.696-4.416-2.088-5.904c-1.392-1.536-3.192-2.304-5.4-2.304s-4.008.768-5.4 2.304c-1.392 1.488-2.088 3.456-2.088 5.904s.696 4.44 2.088 5.976c1.392 1.488 3.192 2.232 5.4 2.232Z"/></svg>

<?xml version="1.0" encoding="UTF-8" standalone="no"?><svg xmlns:android="http://schemas.android.com/apk/res/android" height="192" width="192" xmlns="http://www.w3.org/2000/svg">
  <path d="M146,30H46C37.163,30 30,37.163 30,46V146C30,154.837 37.163,162 46,162H121.373C125.616,162 129.686,160.314 132.686,157.314L157.314,132.686C160.314,129.686 162,125.616 162,121.373V46C162,37.163 154.837,30 146,30Z" fill="#000000" fill-opacity="0.0" stroke="#000000" stroke-width="12"/>
  <path d="M63.484,120C61.66,120 60.34,119.592 59.524,118.776C58.708,117.912 58.3,116.664 58.3,115.032C58.3,113.976 58.564,112.992 59.092,112.08C59.62,111.168 60.34,110.232 61.252,109.272L74.788,95.016C76.804,92.856 78.244,90.936 79.108,89.256C80.02,87.576 80.476,85.896 80.476,84.216C80.476,79.896 77.812,77.736 72.484,77.736C71.092,77.736 69.652,77.928 68.164,78.312C66.724,78.696 65.212,79.368 63.628,80.328C62.332,81.096 61.132,81.264 60.028,80.832C58.972,80.4 58.18,79.656 57.652,78.6C57.172,77.544 57.052,76.44 57.292,75.288C57.58,74.088 58.372,73.104 59.668,72.336C61.78,71.04 64.084,70.08 66.58,69.456C69.076,68.784 71.548,68.448 73.996,68.448C79.66,68.448 83.98,69.72 86.956,72.264C89.98,74.76 91.492,78.336 91.492,82.992C91.492,86.064 90.772,89.016 89.332,91.848C87.94,94.632 85.636,97.656 82.42,100.92L72.628,110.856H89.332C92.452,110.856 94.012,112.368 94.012,115.392C94.012,118.464 92.452,120 89.332,120H63.484ZM112.704,120.792C110.64,120.792 108.552,120.504 106.44,119.928C104.328,119.352 102.36,118.488 100.536,117.336C99.336,116.664 98.592,115.752 98.304,114.6C98.064,113.448 98.16,112.344 98.592,111.288C99.072,110.232 99.816,109.464 100.824,108.984C101.88,108.504 103.128,108.6 104.568,109.272C106.056,110.088 107.472,110.664 108.816,111C110.208,111.336 111.552,111.504 112.848,111.504C120.72,111.504 124.656,106.344 124.656,96.024V94.656C123.648,97.056 122.088,98.928 119.976,100.272C117.864,101.568 115.44,102.216 112.704,102.216C109.824,102.216 107.256,101.52 105,100.128C102.792,98.688 101.04,96.744 99.744,94.296C98.448,91.8 97.8,88.968 97.8,85.8C97.8,82.44 98.52,79.464 99.96,76.872C101.448,74.232 103.464,72.168 106.008,70.68C108.6,69.192 111.576,68.448 114.936,68.448C121.416,68.448 126.408,70.68 129.912,75.144C133.464,79.56 135.24,85.824 135.24,93.936C135.24,102.432 133.248,109.032 129.264,113.736C125.28,118.44 119.76,120.792 112.704,120.792ZM115.584,93.504C117.792,93.504 119.592,92.76 120.984,91.272C122.376,89.736 123.072,87.744 123.072,85.296C123.072,82.848 122.376,80.88 120.984,79.392C119.592,77.856 117.792,77.088 115.584,77.088C113.376,77.088 111.576,77.856 110.184,79.392C108.792,80.88 108.096,82.848 108.096,85.296C108.096,87.744 108.792,89.736 110.184,91.272C111.576,92.76 113.376,93.504 115.584,93.504Z" fill="#000000"/>
</svg>
